assets/image/telegram.svg

<svg width="42" height="42" viewBox="0 0 42 42" fill="none" xmlns="http://www.w3.org/2000/svg">
<rect x="0.5" y="-0.5" width="41.0045" height="41" transform="matrix(1 0 0 -1 0.00222778 41)" fill="white"/>
<rect x="0.5" y="-0.5" width="41.0045" height="41" transform="matrix(1 0 0 -1 0.00222778 41)" stroke="#18B5DC"/>
<path d="M30.5498 14.4566L27.6524 28.0342C27.4338 28.9924 26.8637 29.2309 26.0536 28.7795L21.639 25.5469L19.5088 27.5827C19.273 27.817 19.0759 28.0129 18.6215 28.0129L18.9387 23.5452L27.1209 16.1985C27.4766 15.8833 27.0437 15.7087 26.568 16.0239L16.4528 22.3527L12.0981 20.9984C11.1509 20.7045 11.1337 20.0571 12.2953 19.6057L29.3282 13.0852C30.1169 12.7913 30.8069 13.2598 30.5498 14.4566Z" fill="#18B5DC"/>
</svg>

<svg xmlns="http://www.w3.org/2000/svg" width="42" height="42" fill="none"><path fill="#fff" d="M.502 41.5h41.005V.5H.502z"/><path stroke="#18B5DC" d="M.502 41.5h41.005V.5H.502z"/><path fill="#18B5DC" d="m30.55 14.457-2.898 13.577c-.218.958-.788 1.197-1.598.745l-4.415-3.232-2.13 2.036c-.236.234-.433.43-.887.43l.317-4.468 8.182-7.347c.356-.315-.077-.49-.553-.174l-10.115 6.329-4.355-1.355c-.947-.294-.964-.94.197-1.392l17.033-6.52c.789-.295 1.479.174 1.222 1.37Z"/></svg>
